communes/3271.svg

<?xml version="1.0" encoding="UTF-8"?>
<!DOCTYPE svg  PUBLIC '-//W3C//DTD SVG 1.1//EN'  'http://www.w3.org/Graphics/SVG/1.1/DTD/svg11.dtd'>
<svg enable-background="new 0 0 603 763" version="1.1" viewBox="0 0 603 763" xml:space="preserve" xmlns="http://www.w3.org/2000/svg">


<desc>Coat of Arms of Canton of Freiburg (Fribourg)</desc>

	<path d="m1.5 1.5v458.87c0 166.31 134.31 301.13 300 301.13s300-134.82 300-301.13v-458.87h-600z" fill="#5AB532"/>
	<path d="m201.5 744.34c31.281 11.102 64.933 17.159 100 17.159 165.69 0 300-134.82 300-301.13v-458.87h-400v742.84z" fill="#fff"/>
	<path d="m401.5 744.34c116.51-41.342 200-152.86 200-283.97v-458.87h-200v742.84z" fill="#5AB532"/>


	<g fill="none" stroke="#000" stroke-width="3">
		<line x1="201.5" x2="201.5" y1="1.5" y2="744.36"/>
		<line x1="401.5" x2="401.5" y1="1.5" y2="744.36"/>
	</g>


	<polygon points="301.5 244.5 301.5 244.5 226.5 244.5 226.5 494.5 261.5 519.5 261.5 359.5 286.5 359.5 286.5 534.5 301.5 534.5 301.5 534.5 316.5 534.5 316.5 359.5 341.5 359.5 341.5 519.5 376.5 494.5 376.5 244.5"/>
	<path d="m370.15 197.21c-13.059 0-23.646 10.587-23.646 23.647s10.588 23.646 23.646 23.646c13.06 0 23.646-10.584 23.646-23.646 1e-3 -13.06-10.587-23.647-23.646-23.647zm0 32.515c-4.896 0-8.867-3.973-8.867-8.866 0-4.896 3.972-8.868 8.867-8.868 4.898 0 8.868 3.972 8.868 8.868 1e-3 4.894-3.969 8.866-8.868 8.866z" fill="#FCEF3C" stroke="#000" stroke-width="3"/>
	<path d="m301.5 197.21c-13.058 0-23.646 10.587-23.646 23.646 0 13.062 10.589 23.646 23.646 23.646 13.06 0 23.646-10.585 23.646-23.646 0-13.059-10.586-23.646-23.646-23.646zm0 32.515c-4.896 0-8.867-3.973-8.867-8.866 0-4.896 3.971-8.867 8.867-8.867 4.898 0 8.87 3.972 8.87 8.867-1e-3 4.893-3.972 8.866-8.87 8.866z" fill="#FCEF3C" stroke="#000" stroke-width="3"/>
	<path d="m232.85 197.21c-13.058 0-23.646 10.587-23.646 23.646 0 13.062 10.589 23.646 23.646 23.646 13.06 0 23.646-10.585 23.646-23.646 0-13.059-10.587-23.646-23.646-23.646zm0 32.515c-4.896 0-8.867-3.973-8.867-8.866 0-4.896 3.971-8.867 8.867-8.867 4.899 0 8.869 3.972 8.869 8.867 0 4.893-3.971 8.866-8.869 8.866z" fill="#FCEF3C" stroke="#000" stroke-width="3"/>
	<path d="m301.5 159.5"/>
	
		<rect x="289.23" y="509.5" width="2.727" height="25" fill="#FCEF3C"/>
		<rect x="291.96" y="509.5" width="2.728" height="25"/>
		<rect x="294.68" y="509.5" width="2.727" height="25" fill="#FCEF3C"/>
		<rect x="297.41" y="509.5" width="2.728" height="25"/>
		<rect x="286.5" y="509.5" width="2.728" height="25"/>
		<rect x="300.14" y="509.5" width="2.726" height="25" fill="#FCEF3C"/>
		<rect x="302.86" y="509.5" width="2.729" height="25"/>
		<rect x="305.59" y="509.5" width="2.729" height="25" fill="#FCEF3C"/>
		<rect x="308.32" y="509.5" width="2.728" height="25"/>
		<rect x="311.04" y="509.5" width="2.729" height="25" fill="#FCEF3C"/>
		<rect x="313.77" y="509.5" width="2.729" height="25"/>
	
	
		<polygon points="345.1 491.56 348.24 489.4 348.24 514.4 345.1 516.56" fill="#FCEF3C"/>
		<polygon points="348.24 489.4 351.38 487.24 351.38 512.24 348.24 514.4"/>
		<polygon points="351.38 487.24 354.52 485.08 354.52 510.08 351.38 512.24" fill="#FCEF3C"/>
		<polygon points="354.52 485.08 357.66 482.92 357.66 507.92 354.52 510.08"/>
		<polygon points="341.96 493.73 345.1 491.56 345.1 516.56 341.96 518.73"/>
		<polygon points="357.66 482.92 360.8 480.75 360.8 505.75 357.66 507.92" fill="#FCEF3C"/>
		<polygon points="360.8 480.75 363.94 478.59 363.94 503.59 360.8 505.75"/>
		<polygon points="363.94 478.59 367.08 476.43 367.08 501.43 363.94 503.59" fill="#FCEF3C"/>
		<polygon points="367.08 476.43 370.22 474.26 370.22 499.26 367.08 501.43"/>
		<polygon points="370.22 474.26 373.36 472.1 373.36 497.1 370.22 499.26" fill="#FCEF3C"/>
		<polygon points="373.36 472.1 376.5 469.94 376.5 494.94 373.36 497.1"/>
	
	<polyline points="301.5 244.5 376.5 244.5 376.5 494.5 341.5 519.5 341.5 359.5 316.5 359.5 316.5 534.5 301.5 534.5" fill="none" stroke="#000"/>
	
		<polygon points="258.04 516.03 254.9 513.87 254.9 488.87 258.04 491.03" fill="#FCEF3C"/>
		<polygon points="254.9 513.87 251.75 511.7 251.75 486.7 254.9 488.87"/>
		<polygon points="251.75 511.7 248.61 509.54 248.61 484.54 251.75 486.7" fill="#FCEF3C"/>
		<polygon points="248.61 509.54 245.47 507.38 245.47 482.38 248.61 484.54"/>
		<polygon points="261.18 518.19 258.04 516.03 258.04 491.03 261.18 493.19"/>
		<polygon points="245.47 507.38 242.33 505.22 242.33 480.22 245.47 482.38" fill="#FCEF3C"/>
		<polygon points="242.33 505.22 239.19 503.06 239.19 478.06 242.33 480.22"/>
		<polygon points="239.19 503.06 236.05 500.9 236.05 475.9 239.19 478.06" fill="#FCEF3C"/>
		<polygon points="236.05 500.9 232.91 498.73 232.91 473.73 236.05 475.9"/>
		<polygon points="232.91 498.73 229.77 496.57 229.77 471.57 232.91 473.73" fill="#FCEF3C"/>
		<polygon points="229.77 496.57 226.63 494.41 226.63 469.41 229.77 471.57"/>
	
	<polyline points="301.5 244.5 226.5 244.5 226.5 494.5 261.5 519.5 261.5 359.5 286.5 359.5 286.5 534.5 301.5 534.5" fill="none" stroke="#000"/>


	
		<radialGradient id="a" cx="818.4" cy="-435.42" r="300" gradientTransform="matrix(1.215 0 0 1.2667 -791.03 795.62)" gradientUnits="userSpaceOnUse">
		<stop stop-color="#fff" stop-opacity=".3137" offset="0"/>
		<stop stop-color="#fff" stop-opacity=".251" offset=".19"/>
		<stop stop-color="#6B6B6B" stop-opacity=".1255" offset=".6"/>
		<stop stop-opacity=".1255" offset="1"/>
	</radialGradient>
	<path d="m1.5 1.5v458.87c0 166.31 134.31 301.13 300 301.13s300-134.82 300-301.13v-458.87h-600z" fill="url(#a)"/>


	<path d="m1.5 1.5v458.87c0 166.31 134.31 301.13 300 301.13s300-134.82 300-301.13v-458.87h-600z" fill="none" stroke="#000" stroke-width="3"/>

</svg>

<?xml version="1.0" encoding="utf-8"?>
<!-- Generator: Adobe Illustrator 14.0.0, SVG Export Plug-In . SVG Version: 6.00 Build 43363)  -->
<!DOCTYPE svg PUBLIC "-//W3C//DTD SVG 1.1//EN" "http://www.w3.org/Graphics/SVG/1.1/DTD/svg11.dtd">
<svg version="1.1"
	 id="svg20" xmlns:cc="http://creativecommons.org/ns#" sodipodi:docbase="C:\Documents and Settings\Steve\Bureau\Blason Villages Suisse pour Wikip‚Äö√Ñ√∂‚àö‚Ä†‚àö‚àÇ¬¨¬®¬¨¬©dia (par Delta-9)" xmlns:svg="http://www.w3.org/2000/svg" xmlns:rdf="http://www.w3.org/1999/02/22-rdf-syntax-ns#" xmlns:sodipodi="http://sodipodi.sourceforge.net/DTD/sodipodi-0.dtd" xmlns:inkscape="http://www.inkscape.org/namespaces/inkscape" inkscape:version="0.46" sodipodi:docname="Swiss_Size31-coat_of_arms.svg" sodipodi:version="0.32" xmlns:dc="http://purl.org/dc/elements/1.1/" inkscape:output_extension="org.inkscape.output.svg.inkscape"
	 xmlns="http://www.w3.org/2000/svg" xmlns:xlink="http://www.w3.org/1999/xlink" x="0px" y="0px" width="603px" height="763px"
	 viewBox="0 0 603 763" enable-background="new 0 0 603 763" xml:space="preserve">
<defs>
	
	
		<inkscape:perspective  inkscape:vp_z="603 : 381.5 : 1" sodipodi:type="inkscape:persp3d" inkscape:persp3d-origin="301.5 : 254.33333 : 1" inkscape:vp_y="0 : 1000 : 0" inkscape:vp_x="0 : 381.5 : 1" id="perspective28">
		</inkscape:perspective>
	
		<inkscape:perspective  inkscape:vp_z="612 : 396 : 1" sodipodi:type="inkscape:persp3d" inkscape:persp3d-origin="306 : 264 : 1" inkscape:vp_y="0 : 1000 : 0" inkscape:vp_x="0 : 396 : 1" id="perspective2503">
		</inkscape:perspective>
</defs>
<sodipodi:namedview  inkscape:window-x="20" inkscape:window-y="42" inkscape:current-layer="layer2" showgrid="false" showguides="true" inkscape:guide-bbox="true" gridtolerance="10.0" guidetolerance="10.0" objecttolerance="10.0" inkscape:pageopacity="0.0" inkscape:pageshadow="2" inkscape:window-height="691" inkscape:window-width="939" borderopacity="1.0" bordercolor="#666666" pagecolor="#ffffff" inkscape:zoom="0.54623123" inkscape:cx="117.75879" inkscape:cy="356.29583" id="base">
	<sodipodi:guide  orientation="horizontal" position="761.5" id="guide1885"></sodipodi:guide>
	<sodipodi:guide  orientation="vertical" position="1.5" id="guide1887"></sodipodi:guide>
	<sodipodi:guide  orientation="horizontal" position="1.5" id="guide1889"></sodipodi:guide>
	<sodipodi:guide  orientation="vertical" position="601.5" id="guide1891"></sodipodi:guide>
	<sodipodi:guide  orientation="vertical" position="301.50081" id="guide1893"></sodipodi:guide>
</sodipodi:namedview>
<desc  id="desc22">Coat of Arms of Canton of Freiburg (Fribourg)</desc>
<g id="layer1" inkscape:groupmode="layer" inkscape:label="Fond ‚Äö√Ñ√∂‚àö‚Ä†‚àö‚àÇ¬¨¬®¬¨¬©cu" sodipodi:insensitive="true">
	<path id="_x3C_Tracé_x3E__1_" fill="#5AB532" d="M1.5,1.5v458.868c0,166.311,134.314,301.132,300,301.132
		c165.686,0,300-134.821,300-301.132V1.5H1.5z"/>
	<path id="path2478" fill="#FFFFFF" d="M201.5,744.341c31.281,11.102,64.933,17.159,100,17.159c165.686,0,300-134.821,300-301.132
		V1.5h-400V744.341z"/>
	<path id="path2480" fill="#5AB532" d="M401.5,744.341c116.514-41.342,200-152.859,200-283.973V1.5h-200V744.341z"/>
</g>
<g id="layer2" inkscape:groupmode="layer" inkscape:label="Meubles" sodipodi:insensitive="true">
	<g id="g2554">
		<line id="line2494" fill="none" stroke="#000000" stroke-width="3" x1="201.5" y1="1.5" x2="201.5" y2="744.363"/>
		<line id="line2496" fill="none" stroke="#000000" stroke-width="3" x1="401.5" y1="1.5" x2="401.5" y2="744.364"/>
	</g>
</g>
<g>
	<polygon points="301.5,244.5 301.499,244.5 226.5,244.5 226.5,494.5 261.5,519.5 261.5,359.5 286.5,359.5 286.5,534.5 
		301.499,534.5 301.5,534.5 316.5,534.5 316.5,359.5 341.5,359.5 341.5,519.5 376.5,494.5 376.5,244.5 	"/>
	<path fill="#FCEF3C" stroke="#000000" stroke-width="3" d="M370.146,197.208c-13.059,0-23.646,10.587-23.646,23.647
		s10.588,23.646,23.646,23.646c13.06,0,23.646-10.584,23.646-23.646C393.793,207.795,383.205,197.208,370.146,197.208z
		 M370.146,229.723c-4.896,0-8.867-3.973-8.867-8.866c0-4.896,3.972-8.868,8.867-8.868c4.898,0,8.868,3.972,8.868,8.868
		C379.015,225.751,375.045,229.723,370.146,229.723z"/>
	<path fill="#FCEF3C" stroke="#000000" stroke-width="3" d="M301.5,197.208c-13.058,0-23.646,10.587-23.646,23.646
		c0,13.062,10.589,23.646,23.646,23.646c13.06,0,23.646-10.585,23.646-23.646C325.146,207.795,314.56,197.208,301.5,197.208z
		 M301.5,229.723c-4.896,0-8.867-3.973-8.867-8.866c0-4.896,3.971-8.867,8.867-8.867c4.898,0,8.87,3.972,8.87,8.867
		C310.369,225.75,306.398,229.723,301.5,229.723z"/>
	<path fill="#FCEF3C" stroke="#000000" stroke-width="3" d="M232.854,197.208c-13.058,0-23.646,10.587-23.646,23.646
		c0,13.062,10.589,23.646,23.646,23.646c13.06,0,23.646-10.585,23.646-23.646C256.5,207.795,245.913,197.208,232.854,197.208z
		 M232.854,229.723c-4.896,0-8.867-3.973-8.867-8.866c0-4.896,3.971-8.867,8.867-8.867c4.899,0,8.869,3.972,8.869,8.867
		C241.723,225.75,237.752,229.723,232.854,229.723z"/>
	<path d="M301.5,159.5"/>
	<g>
		<rect x="289.228" y="509.5" fill="#FCEF3C" width="2.727" height="25"/>
		<rect x="291.955" y="509.5" width="2.728" height="25"/>
		<rect x="294.682" y="509.5" fill="#FCEF3C" width="2.727" height="25"/>
		<rect x="297.409" y="509.5" width="2.728" height="25"/>
		<rect x="286.5" y="509.5" width="2.728" height="25"/>
		<rect x="300.137" y="509.5" fill="#FCEF3C" width="2.726" height="25"/>
		<rect x="302.863" y="509.5" width="2.729" height="25"/>
		<rect x="305.59" y="509.5" fill="#FCEF3C" width="2.729" height="25"/>
		<rect x="308.317" y="509.5" width="2.728" height="25"/>
		<rect x="311.045" y="509.5" fill="#FCEF3C" width="2.729" height="25"/>
		<rect x="313.771" y="509.5" width="2.729" height="25"/>
	</g>
	<g>
		<polygon fill="#FCEF3C" points="345.098,491.564 348.237,489.402 348.237,514.402 345.098,516.564 		"/>
		<polygon points="348.237,489.402 351.379,487.239 351.379,512.239 348.237,514.402 		"/>
		<polygon fill="#FCEF3C" points="351.379,487.239 354.519,485.077 354.519,510.077 351.379,512.239 		"/>
		<polygon points="354.519,485.077 357.66,482.915 357.66,507.915 354.519,510.077 		"/>
		<polygon points="341.957,493.729 345.098,491.564 345.098,516.564 341.957,518.729 		"/>
		<polygon fill="#FCEF3C" points="357.66,482.915 360.799,480.753 360.799,505.753 357.66,507.915 		"/>
		<polygon points="360.799,480.753 363.94,478.591 363.94,503.591 360.799,505.753 		"/>
		<polygon fill="#FCEF3C" points="363.94,478.591 367.08,476.428 367.08,501.428 363.94,503.591 		"/>
		<polygon points="367.08,476.428 370.222,474.265 370.222,499.265 367.08,501.428 		"/>
		<polygon fill="#FCEF3C" points="370.222,474.265 373.361,472.104 373.361,497.104 370.222,499.265 		"/>
		<polygon points="373.361,472.104 376.502,469.939 376.502,494.939 373.361,497.104 		"/>
	</g>
	<polyline fill="none" stroke="#000000" points="301.5,244.5 376.5,244.5 376.5,494.5 341.5,519.5 341.5,359.5 316.5,359.5 
		316.5,534.5 301.5,534.5 	"/>
	<g>
		<polygon fill="#FCEF3C" points="258.035,516.031 254.895,513.868 254.895,488.868 258.035,491.031 		"/>
		<polygon points="254.895,513.868 251.753,511.705 251.753,486.705 254.895,488.868 		"/>
		<polygon fill="#FCEF3C" points="251.753,511.705 248.613,509.543 248.613,484.543 251.753,486.705 		"/>
		<polygon points="248.613,509.543 245.473,507.381 245.473,482.381 248.613,484.543 		"/>
		<polygon points="261.175,518.193 258.035,516.031 258.035,491.031 261.175,493.193 		"/>
		<polygon fill="#FCEF3C" points="245.473,507.381 242.333,505.219 242.333,480.219 245.473,482.381 		"/>
		<polygon points="242.333,505.219 239.191,503.057 239.191,478.057 242.333,480.219 		"/>
		<polygon fill="#FCEF3C" points="239.191,503.057 236.051,500.895 236.051,475.895 239.191,478.057 		"/>
		<polygon points="236.051,500.895 232.911,498.73 232.911,473.73 236.051,475.895 		"/>
		<polygon fill="#FCEF3C" points="232.911,498.73 229.771,496.568 229.771,471.568 232.911,473.73 		"/>
		<polygon points="229.771,496.568 226.629,494.406 226.629,469.406 229.771,471.568 		"/>
	</g>
	<polyline fill="none" stroke="#000000" points="301.5,244.5 226.5,244.5 226.5,494.5 261.5,519.5 261.5,359.5 286.5,359.5 
		286.5,534.5 301.5,534.5 	"/>
</g>
<g id="layer3" inkscape:groupmode="layer" inkscape:label="Reflet final" sodipodi:insensitive="true">
	
		<radialGradient id="path2346_1_" cx="818.4033" cy="-435.4243" r="300.0004" gradientTransform="matrix(1.215 0 0 1.2667 -791.0256 795.6202)" gradientUnits="userSpaceOnUse">
		<stop  offset="0" style="stop-color:#FFFFFF;stop-opacity:0.3137"/>
		<stop  offset="0.19" style="stop-color:#FFFFFF;stop-opacity:0.251"/>
		<stop  offset="0.6" style="stop-color:#6B6B6B;stop-opacity:0.1255"/>
		<stop  offset="1" style="stop-color:#000000;stop-opacity:0.1255"/>
	</radialGradient>
	<path id="path2346" fill="url(#path2346_1_)" d="M1.5,1.5v458.868c0,166.311,134.314,301.132,300,301.132
		c165.686,0,300-134.821,300-301.132V1.5H1.5z"/>
</g>
<g id="layer4" inkscape:groupmode="layer" inkscape:label="Contour final" sodipodi:insensitive="true">
	<path id="path3239" fill="none" stroke="#000000" stroke-width="3" d="M1.5,1.5v458.868c0,166.311,134.314,301.132,300,301.132
		c165.686,0,300-134.821,300-301.132V1.5H1.5z"/>
</g>
</svg>
